X: 1
T:The Rakes of Kildare
M:6/8
L:1/8
Q:80
C:arr. Kent Hiestand
S:Jig
K:HP
A|
{g}GA{d}A{g}AGA|
{g}Bcd{gef}e2f|
gfg{a}ege|  !
dBG{gGd}GA|
{g}GA{d}A{g}AGA|
{g}Bcd{gef}e2f|  !
gfg{a}edB|
{g}A3{GAG}A2:|
a|  !
{g}aea{g}aea|
{g}aea{GdG}a2{g}a|
gfg{a}ege|1  !
dBG{gGd}Ga|
{g}aea{g}aea|
{g}aea{GdG}a2{g}a|  !
gfedBG|
{g}A3{GAG}A2:|2
dBG{gGd}GA|  !
{g}GA{d}A{g}AGA|
{g}Bcd{gef}e2f|
gfg{a}edB|  !
{g}A3{GAG}A2|]
